src/assets/twitter.svg

<svg width="32" height="32" viewBox="0 0 32 32" fill="none" xmlns="http://www.w3.org/2000/svg">
<rect width="32" height="32" rx="8" fill="#424245"/>
<g clip-path="url(#clip0_938_3180)">
<path d="M14.0334 22.5C20.0697 22.5 23.3722 17.4978 23.3722 13.1612C23.3722 13.0206 23.3691 12.8769 23.3628 12.7362C24.0052 12.2716 24.5597 11.6962 25 11.0369C24.4017 11.3031 23.7664 11.4769 23.1159 11.5525C23.8009 11.1419 24.3137 10.497 24.5594 9.73718C23.915 10.119 23.2104 10.3884 22.4756 10.5337C21.9806 10.0077 21.326 9.65941 20.6131 9.5427C19.9003 9.42599 19.1688 9.54737 18.5318 9.88806C17.8949 10.2288 17.3879 10.7698 17.0892 11.4275C16.7906 12.0853 16.717 12.8231 16.8797 13.5269C15.575 13.4614 14.2986 13.1225 13.1333 12.5321C11.968 11.9417 10.9398 11.113 10.1153 10.0997C9.69627 10.8222 9.56804 11.6771 9.75669 12.4907C9.94534 13.3044 10.4367 14.0156 11.1309 14.48C10.6098 14.4634 10.1 14.3231 9.64375 14.0706V14.1112C9.64328 14.8694 9.9054 15.6044 10.3855 16.1912C10.8657 16.778 11.5342 17.1804 12.2775 17.33C11.7947 17.4621 11.288 17.4813 10.7966 17.3862C11.0063 18.0383 11.4144 18.6086 11.9638 19.0176C12.5133 19.4265 13.1767 19.6537 13.8616 19.6675C12.6989 20.5807 11.2628 21.0761 9.78438 21.0737C9.52219 21.0733 9.26027 21.0573 9 21.0256C10.5019 21.9892 12.249 22.5009 14.0334 22.5Z" fill="#CDCDCD"/>
</g>
<defs>
<clipPath id="clip0_938_3180">
<rect width="16" height="16" fill="white" transform="translate(9 8)"/>
</clipPath>
</defs>
</svg>

<svg fill="none" xmlns="http://www.w3.org/2000/svg" viewBox="0 0 32 32"><rect width="32" height="32" rx="8" fill="#424245"/><g clip-path="url(#a)"><path d="M14.033 22.5c6.037 0 9.34-5.002 9.34-9.339 0-.14-.004-.284-.01-.425a6.666 6.666 0 0 0 1.637-1.7 6.473 6.473 0 0 1-1.884.517 3.3 3.3 0 0 0 1.443-1.816 6.599 6.599 0 0 1-2.083.797 3.287 3.287 0 0 0-5.596 2.993 9.324 9.324 0 0 1-6.765-3.427 3.286 3.286 0 0 0 1.016 4.38 3.288 3.288 0 0 1-1.487-.41v.041a3.282 3.282 0 0 0 2.633 3.219c-.482.132-.989.151-1.48.056a3.29 3.29 0 0 0 3.065 2.282A6.584 6.584 0 0 1 9 21.026a9.312 9.312 0 0 0 5.033 1.474Z" fill="#CDCDCD"/></g><defs><clipPath id="a"><path fill="#fff" transform="translate(9 8)" d="M0 0h16v16H0z"/></clipPath></defs></svg>
